apps/admin/public/linkgraph.svg

<svg fill="none" height="31" viewBox="0 0 33 31" width="33" xmlns="http://www.w3.org/2000/svg" xmlns:xlink="http://www.w3.org/1999/xlink"><linearGradient id="a" gradientUnits="userSpaceOnUse" x1="19.6056" x2="3.15553" y1="4.87919" y2="27.0954"><stop offset="0" stop-color="#ff438c"/><stop offset="1" stop-color="#487aff"/></linearGradient><g fill="url(#a)"><path d="m12.0315 9.72975c-1.4918-1.85831-1.7883-4.54745-.5484-6.7576 1.5946-2.842166 5.1261-3.815965 7.8879-2.175037 2.7619 1.640927 3.7081 5.275197 2.1136 8.117367-1.2407 2.21142-3.6539 3.29172-5.9649 2.88942l-3.2015 5.7065c-.5554.9901-1.7868 1.3287-2.75018.7562-.96343-.5724-1.29414-1.839-.73867-2.8291z"/><path d="m26.2627 19.1595c2.3103-.4012 4.7225.6791 5.9627 2.8898 1.5946 2.8422.6483 6.4764-2.1135 8.1174-2.7619 1.6409-6.2934.6671-7.8879-2.1751-1.2404-2.2108-.9433-4.9009.5498-6.7593l-3.2032-5.7094c-.5555-.9901-.2248-2.2568.7387-2.8292.9634-.5724 2.1947-.2338 2.7502.7563z"/><path d="m11.1864 27.134c-.8183 2.2579-2.9327 3.866-5.41206 3.866-3.18908 0-5.77434-2.6605-5.77434-5.9423 0-3.2819 2.58526-5.9424 5.77434-5.9424 2.48185 0 4.59796 1.6114 5.41456 3.8729h6.3969c1.1155 0 2.0198.9281 2.0198 2.0729s-.9043 2.0729-2.0198 2.0729z"/></g></svg>

<svg width="33" height="31" viewBox="0 0 33 31" fill="none" xmlns="http://www.w3.org/2000/svg">
<path d="M12.0315 9.72975C10.5397 7.87144 10.2432 5.1823 11.4831 2.97215C13.0777 0.129984 16.6092 -0.843815 19.371 0.797113C22.1329 2.43804 23.0791 6.07231 21.4846 8.91448C20.2439 11.1259 17.8307 12.2062 15.5197 11.8039L12.3182 17.5104C11.7628 18.5005 10.5314 18.8391 9.56802 18.2666C8.60459 17.6942 8.27388 16.4276 8.82935 15.4375L12.0315 9.72975Z" fill="url(#paint0_linear_80_1970)"/>
<path d="M26.2627 19.1595C28.573 18.7583 30.9852 19.8386 32.2254 22.0493C33.82 24.8915 32.8737 28.5257 30.1119 30.1667C27.35 31.8076 23.8185 30.8338 22.224 27.9916C20.9836 25.7808 21.2807 23.0907 22.7738 21.2323L19.5706 15.5229C19.0151 14.5328 19.3458 13.2661 20.3093 12.6937C21.2727 12.1213 22.504 12.4599 23.0595 13.45L26.2627 19.1595Z" fill="url(#paint1_linear_80_1970)"/>
<path d="M11.1864 27.134C10.3681 29.3919 8.2537 31 5.77434 31C2.58526 31 0 28.3395 0 25.0577C0 21.7758 2.58526 19.1153 5.77434 19.1153C8.25619 19.1153 10.3723 20.7267 11.1889 22.9882H17.5858C18.7013 22.9882 19.6056 23.9163 19.6056 25.0611C19.6056 26.2059 18.7013 27.134 17.5858 27.134H11.1864Z" fill="url(#paint2_linear_80_1970)"/>
<defs>
<linearGradient id="paint0_linear_80_1970" x1="19.6056" y1="4.87919" x2="3.15553" y2="27.0954" gradientUnits="userSpaceOnUse">
<stop stop-color="#FF438C"/>
<stop offset="1" stop-color="#487AFF"/>
</linearGradient>
<linearGradient id="paint1_linear_80_1970" x1="19.6056" y1="4.87919" x2="3.15553" y2="27.0954" gradientUnits="userSpaceOnUse">
<stop stop-color="#FF438C"/>
<stop offset="1" stop-color="#487AFF"/>
</linearGradient>
<linearGradient id="paint2_linear_80_1970" x1="19.6056" y1="4.87919" x2="3.15553" y2="27.0954" gradientUnits="userSpaceOnUse">
<stop stop-color="#FF438C"/>
<stop offset="1" stop-color="#487AFF"/>
</linearGradient>
</defs>
</svg>
